COLOR/action 16/16/package-new.svg

<svg height="16" width="16" xmlns="http://www.w3.org/2000/svg"><path d="m5.3261719 0c-1.67759.0195-2.9064963-.04015813-3.9101563.51367188-.50182998.27685999-.89762747.74519812-1.11718748 1.33007812-.21956.58488-.29882812 1.27944-.29882812 2.15625v8c0 .87681.07924813 1.57137.29882812 2.15625.21956001.58488.61535751 1.053218 1.11718748 1.330078 1.00366.55376 2.2325663.494242 3.9101563.513672h.00391 5.3398439.0039c1.67759-.0195 2.904543.04016 3.908203-.513672.50183-.27686.897628-.745198 1.117188-1.330078.2199822-.58488.3007832-1.27944.3007832-2.15625v-8c0-.87681-.079248-1.57136-.298828-2.15625-.21955-.58488-.615358-1.05319812-1.117188-1.33007812-1.00366-.55379-2.232556-.49431188-3.910156-.51367188h-.0039-2.0039064-3.3359375z" fill="#eab305"/><path d="m5.3261719 0c-1.67759.0195-2.9064963-.040158-3.9101563.5136719-.50182992.27686-.89762745.7451981-1.1171875 1.3300781-.21956.58488-.2988281 1.27944-.2988281 2.15625v.5c0-.87681.079268-1.57137.2988281-2.15625.21956005-.58488.61535758-1.0532181 1.1171875-1.3300781 1.00366-.5538301 2.2325663-.4941719 3.9101563-.5136719h.00391 3.3359375 2.0039066.0039c1.6776.01936 2.906496-.040118 3.910156.5136719.50183.27688.897638.7451981 1.117188 1.3300781.219582.58489.29883 1.27944.29883 2.15625v-.5c0-.87681-.07925-1.57136-.298828-2.15625-.21955-.58488-.615358-1.0531982-1.117188-1.3300781-1.00366-.55379-2.232556-.4943119-3.910156-.5136719h-.0039-2.0039064-3.3359375z" fill="#fff" opacity=".3"/><path d="m10.673828 16c1.67759-.0195 2.906496.04016 3.910156-.513672.50183-.27686.897628-.745198 1.117188-1.330078s.298828-1.27944.298828-2.15625v-.5c0 .87681-.07927 1.57137-.298828 2.15625-.21956.58488-.615358 1.053218-1.117188 1.330078-1.00366.55383-2.232566.494172-3.910156.513672h-.00391-3.3359376-2.0039064-.00391c-1.6776-.01936-2.906496.04012-3.910156-.513672-.50183-.27688-.897638-.745198-1.117188-1.330078-.21958-.58489-.298828-1.27944-.298828-2.15625v.5c0 .87681.079248 1.57136.298828 2.15625.21955.58488.615358 1.053198 1.117188 1.330078 1.00366.55379 2.232556.494312 3.910156.513672h.00391 2.0039064 3.3359376z" opacity=".2"/><path d="m9.6998696 11.289084-2.2294301-1.058562-2.1359157 1.236437.3178202-2.4474279-1.8359552-1.6492967 2.4258538-.4540317 1.001233-2.2557579 1.18144 2.1668206 2.4547514.2551617-1.695684 1.7932005z" fill="#fff" transform="matrix(1.2741959 0 0 1.3222628 -1.362827 -2.662333)"/></svg>

<?xml version="1.0" encoding="UTF-8" standalone="no"?>
<svg
   xmlns:dc="http://purl.org/dc/elements/1.1/"
   xmlns:cc="http://creativecommons.org/ns#"
   xmlns:rdf="http://www.w3.org/1999/02/22-rdf-syntax-ns#"
   xmlns:svg="http://www.w3.org/2000/svg"
   xmlns="http://www.w3.org/2000/svg"
   xmlns:sodipodi="http://sodipodi.sourceforge.net/DTD/sodipodi-0.dtd"
   xmlns:inkscape="http://www.inkscape.org/namespaces/inkscape"
   height="16"
   width="16"
   version="1.1"
   id="svg4"
   sodipodi:docname="package-new.svg"
   inkscape:version="0.92.4 (5da689c313, 2019-01-14)">
  <metadata
     id="metadata10">
    <rdf:RDF>
      <cc:Work
         rdf:about="">
        <dc:format>image/svg+xml</dc:format>
        <dc:type
           rdf:resource="http://purl.org/dc/dcmitype/StillImage" />
      </cc:Work>
    </rdf:RDF>
  </metadata>
  <defs
     id="defs8" />
  <sodipodi:namedview
     pagecolor="#ffffff"
     bordercolor="#808080"
     borderopacity="1"
     objecttolerance="10"
     gridtolerance="10"
     guidetolerance="10"
     inkscape:pageopacity="0"
     inkscape:pageshadow="2"
     inkscape:window-width="1920"
     inkscape:window-height="1016"
     id="namedview6"
     showgrid="false"
     inkscape:zoom="14.75"
     inkscape:cx="-4.9830508"
     inkscape:cy="8"
     inkscape:window-x="0"
     inkscape:window-y="27"
     inkscape:window-maximized="1"
     inkscape:current-layer="svg4" />
  <path
     d="M 5.3261719,0 C 3.6485819,0.0195 2.4196756,-0.04015813 1.4160156,0.51367188 0.91418562,0.79053187 0.51838813,1.25887 0.29882812,1.84375 0.07926812,2.42863 0,3.12319 0,4 v 8 c 0,0.87681 0.07924813,1.57137 0.29882812,2.15625 0.21956001,0.58488 0.61535751,1.053218 1.11718748,1.330078 1.00366,0.55376 2.2325663,0.494242 3.9101563,0.513672 h 0.00391 5.3398439 0.0039 c 1.67759,-0.0195 2.904543,0.04016 3.908203,-0.513672 0.50183,-0.27686 0.897628,-0.745198 1.117188,-1.330078 C 15.919199,13.57137 16,12.87681 16,12 V 4 C 16,3.12319 15.920752,2.42864 15.701172,1.84375 15.481622,1.25887 15.085814,0.79055188 14.583984,0.51367188 13.580324,-0.04011812 12.351428,0.01936 10.673828,0 h -0.0039 -2.0039064 -3.3359375 z"
     id="path2"
     inkscape:connector-curvature="0"
     style="fill:#eab305;fill-opacity:1"
     sodipodi:nodetypes="ccsssccccccccssccccccc" />
  <path
     inkscape:connector-curvature="0"
     style="opacity:0.3;fill:#ffffff;fill-opacity:1"
     d="M 5.3261719,0 C 3.6485819,0.0195 2.4196756,-0.040158 1.4160156,0.5136719 0.91418568,0.7905319 0.51838815,1.25887 0.2988281,1.84375 0.0792681,2.42863 0,3.12319 0,4 V 4.5 C 0,3.62319 0.079268,2.92863 0.2988281,2.34375 0.51838815,1.75887 0.91418568,1.2905319 1.4160156,1.0136719 2.4196756,0.4598418 3.6485819,0.5195 5.3261719,0.5 h 0.00391 3.3359375 2.0039066 0.0039 c 1.6776,0.01936 2.906496,-0.040118 3.910156,0.5136719 C 15.085812,1.2905519 15.48162,1.75887 15.70117,2.34375 15.920752,2.92864 16,3.62319 16,4.5 V 4 C 16,3.12319 15.92075,2.42864 15.701172,1.84375 15.481622,1.25887 15.085814,0.7905518 14.583984,0.5136719 13.580324,-0.0401181 12.351428,0.01936 10.673828,0 h -0.0039 -2.0039064 -3.3359375 z"
     id="path852" />
  <path
     id="path857"
     d="m 10.673828,16 c 1.67759,-0.0195 2.906496,0.04016 3.910156,-0.513672 0.50183,-0.27686 0.897628,-0.745198 1.117188,-1.330078 C 15.920732,13.57137 16,12.87681 16,12 v -0.5 c 0,0.87681 -0.07927,1.57137 -0.298828,2.15625 -0.21956,0.58488 -0.615358,1.053218 -1.117188,1.330078 C 13.580324,15.540158 12.351418,15.4805 10.673828,15.5 H 10.669918 7.3339804 5.330074 5.326164 C 3.648564,15.48064 2.419668,15.54012 1.416008,14.986328 0.914178,14.709448 0.51837,14.24113 0.29882,13.65625 0.07924,13.07136 -8e-6,12.37681 -8e-6,11.5 V 12 c 0,0.87681 0.079248,1.57136 0.298828,2.15625 0.21955,0.58488 0.615358,1.053198 1.117188,1.330078 C 2.419668,16.040118 3.648564,15.98064 5.326164,16 h 0.00391 2.0039064 3.3359376 z"
     style="opacity:0.2;fill:#000000;fill-opacity:1"
     inkscape:connector-curvature="0" />
  <path
     sodipodi:type="star"
     style="opacity:1;fill:#ffffff;fill-opacity:1;stroke:none;stroke-opacity:1"
     id="path825"
     sodipodi:sides="5"
     sodipodi:cx="7.3947849"
     sodipodi:cy="8.3738298"
     sodipodi:r1="3.7164664"
     sodipodi:r2="1.8582332"
     sodipodi:arg1="0.90175333"
     sodipodi:arg2="1.5300719"
     inkscape:flatsided="false"
     inkscape:rounded="0"
     inkscape:randomized="0"
     d="M 9.6998696,11.289084 7.4704395,10.230522 5.3345238,11.466959 5.652344,9.0195311 3.8163888,7.3702344 6.2422426,6.9162027 7.2434756,4.6604448 8.4249156,6.8272654 10.879667,7.0824271 9.183983,8.8756276 Z"
     inkscape:transform-center-x="0.059577858"
     inkscape:transform-center-y="-0.4100705"
     transform="matrix(1.2741959,0,0,1.3222628,-1.3628269,-2.6623329)" />
</svg>
